X:7333
T:The Silver Spear
O:england
M:4/4
L:1/8
Q:1/8=220
C:Trad Irish
K:D
FA A2 BAFA|dfed BdAG|FA A2 BAFA|dfed B2 AG|
FA A2 BAFA|dfed Bdef|g3 e f3 e|dfed B2 A2:|
faaf bfaf|gfed Bcde|faaf bfaf|gfed B2 Ae|
faaf bfaf|gfed Bdef|g3 e f3 e|dfed B2 A2:|


